dataset/menulibre/icon.svg

<?xml version="1.0" encoding="UTF-8" standalone="no"?>
<svg
   height="128px"
   viewBox="0 0 128 128"
   width="128px"
   version="1.1"
   id="svg83"
   xml:space="preserve"
   xmlns:xlink="http://www.w3.org/1999/xlink"
   xmlns="http://www.w3.org/2000/svg"
   xmlns:svg="http://www.w3.org/2000/svg"><defs
     id="defs87" /><linearGradient
     id="a"
     gradientTransform="rotate(180,67.999993,-94.563629)"
     gradientUnits="userSpaceOnUse"
     x1="27.99999"
     x2="115.999992"
     y1="-276"
     y2="-276"><stop
       offset="0"
       stop-color="#c0bfbc"
       id="stop2" /><stop
       offset="0.0454545"
       stop-color="#ffffff"
       id="stop4" /><stop
       offset="0.0909091"
       stop-color="#deddda"
       id="stop6" /><stop
       offset="0.909091"
       stop-color="#deddda"
       id="stop8" /><stop
       offset="0.954545"
       stop-color="#ffffff"
       id="stop10" /><stop
       offset="1"
       stop-color="#c0bfbc"
       id="stop12" /></linearGradient><clipPath
     id="b"><path
       d="m 88 94 h 20 v 20 h -20 z m 0 0"
       id="path15" /></clipPath><clipPath
     id="c"><path
       d="m 108 94 l -20 20 h -5.714844 v -25.714844 h 25.714844 z m 0 0"
       id="path18" /></clipPath><linearGradient
     id="d"
     gradientTransform="matrix(0,0.178571,0.178571,0,84.428574,42.571447)"
     gradientUnits="userSpaceOnUse"
     x1="344"
     x2="340"
     y1="76"
     y2="72"><stop
       offset="0"
       stop-color="#d5d3cf"
       id="stop21" /><stop
       offset="1"
       stop-color="#ffffff"
       id="stop23" /></linearGradient><linearGradient
     id="e"
     gradientUnits="userSpaceOnUse"><stop
       offset="0"
       stop-color="#fc9a91"
       id="stop26" /><stop
       offset="1"
       stop-color="#cb2b31"
       id="stop28" /></linearGradient><linearGradient
     id="f"
     gradientTransform="matrix(0.6,0.6,0.58246136,-0.58246136,287.30238,123.54243)"
     x1="-253.630356"
     x2="-230.060135"
     xlink:href="#e"
     y1="-56.517502"
     y2="-56.517502" /><linearGradient
     id="g"
     gradientTransform="matrix(0.6,0.6,0.58246136,-0.58246136,286.13746,124.70735)"
     x1="-253.630356"
     x2="-230.060135"
     xlink:href="#e"
     y1="-56.517502"
     y2="-56.517502" /><linearGradient
     id="h"
     gradientTransform="matrix(0.34443932,-0.08423432,0.08423432,-0.34443932,9.3435599,39.470393)"
     gradientUnits="userSpaceOnUse"
     x1="181.677414"
     x2="143.24614"
     y1="-139.479385"
     y2="-101.048103"><stop
       offset="0"
       stop-color="#d0bb8e"
       id="stop33" /><stop
       offset="1"
       stop-color="#ffffff"
       id="stop35" /></linearGradient><linearGradient
     id="i"
     gradientTransform="matrix(0.6,0.6,0.58246136,-0.58246136,286.13746,124.70735)"
     gradientUnits="userSpaceOnUse"
     x1="-230.060135"
     x2="-253.630356"
     y1="-64.517509"
     y2="-64.517509"><stop
       offset="0"
       stop-color="#c0bfbc"
       id="stop38" /><stop
       offset="0.223152"
       stop-color="#9a9996"
       id="stop40" /><stop
       offset="0.743841"
       stop-color="#d6d5d2"
       id="stop42" /><stop
       offset="1"
       stop-color="#f6f5f4"
       id="stop44" /></linearGradient><path
     id="path47"
     d="m 28,74.623564 c -4.417965,0 -8,3.582036 -8,8 v 14.25 c 0,4.417966 3.582035,7.999996 8,7.999996 h 2.771484 l 15.13086,15.13281 15.132812,-15.13281 H 100 c 4.41797,0 8,-3.58203 8,-7.999996 v -14.25 c 0,-4.417964 -3.58203,-8 -8,-8 z"
     style="fill:#1a5fb4;fill-opacity:1" /><path
     id="path49"
     style="fill:url(#a)"
     d="m 28,62.873564 c -4.417965,0 -8,3.582036 -8,8 v 24 c 0,4.417966 3.582035,7.999996 8,7.999996 h 2.771484 l 15.13086,15.13281 15.132812,-15.13281 H 100 c 4.41797,0 8,-3.58203 8,-7.999996 v -24 c 0,-4.417964 -3.58203,-8 -8,-8 z" /><path
     id="path51"
     d="m 29.125,12.523955 c -5.039057,0 -9.125,4.085943 -9.125,9.125 v 68.099609 c 0,5.039057 4.085943,9.125 9.125,9.125 h 1.646484 L 45.902344,114.00637 61.035156,98.873564 H 98.875 c 5.03905,0 9.125,-4.085943 9.125,-9.125 V 21.648955 c 0,-5.039057 -4.08595,-9.125 -9.125,-9.125 z"
     style="fill:#f6f5f4;fill-opacity:1" /><rect
     width="8.5418768"
     height="8.5418768"
     rx="0.6570673"
     ry="0.6570673"
     x="27.922602"
     y="64.689293"
     id="rect3315-7"
     style="color:#000000;display:inline;overflow:visible;visibility:visible;fill:#3584e4;fill-opacity:1;fill-rule:nonzero;stroke:none;stroke-width:1.70828;stroke-linecap:round;stroke-linejoin:round;stroke-miterlimit:4;stroke-dasharray:none;stroke-dashoffset:0;stroke-opacity:1;marker:none;enable-background:accumulate" /><rect
     ry="1.7082778"
     rx="2.7898803"
     y="67.252129"
     x="45.859516"
     height="3.4165556"
     width="50.217846"
     id="rect4179-2"
     style="fill:#3584e4;fill-opacity:1;fill-rule:nonzero;stroke:none;stroke-width:1.97468" /><rect
     style="fill:#deddda;fill-opacity:1;fill-rule:nonzero;stroke:none;stroke-width:1.97468"
     id="rect4121-2"
     width="50.217846"
     height="3.4165556"
     x="45.85955"
     y="50.461063"
     rx="2.7898803"
     ry="1.7082778" /><rect
     style="color:#000000;display:inline;overflow:visible;visibility:visible;fill:#deddda;fill-opacity:1;fill-rule:nonzero;stroke:none;stroke-width:1.70828;stroke-linecap:round;stroke-linejoin:round;stroke-miterlimit:4;stroke-dasharray:none;stroke-dashoffset:0;stroke-opacity:1;marker:none;enable-background:accumulate"
     id="rect4125-8"
     y="49.606926"
     x="29.630899"
     ry="0.39421785"
     rx="0.39421785"
     height="5.1248331"
     width="5.1248331" /><rect
     ry="1.7082778"
     rx="2.7898803"
     y="36.794842"
     x="45.85955"
     height="3.4165556"
     width="50.217846"
     id="rect4139-7"
     style="fill:#deddda;fill-opacity:1;fill-rule:nonzero;stroke:none;stroke-width:1.97468" /><rect
     width="5.1248331"
     height="5.1248331"
     rx="0.39421785"
     ry="0.39421785"
     x="29.630899"
     y="35.940704"
     id="rect4143-6"
     style="color:#000000;display:inline;overflow:visible;visibility:visible;fill:#deddda;fill-opacity:1;fill-rule:nonzero;stroke:none;stroke-width:1.70828;stroke-linecap:round;stroke-linejoin:round;stroke-miterlimit:4;stroke-dasharray:none;stroke-dashoffset:0;stroke-opacity:1;marker:none;enable-background:accumulate" /><rect
     style="fill:#deddda;fill-opacity:1;fill-rule:nonzero;stroke:none;stroke-width:1.97468"
     id="rect4121-2-3"
     width="50.217846"
     height="3.4165556"
     x="45.859554"
     y="23.077412"
     rx="2.7898803"
     ry="1.7082778" /><rect
     style="color:#000000;display:inline;overflow:visible;visibility:visible;fill:#deddda;fill-opacity:1;fill-rule:nonzero;stroke:none;stroke-width:1.70828;stroke-linecap:round;stroke-linejoin:round;stroke-miterlimit:4;stroke-dasharray:none;stroke-dashoffset:0;stroke-opacity:1;marker:none;enable-background:accumulate"
     id="rect4125-8-1"
     y="22.22327"
     x="29.630903"
     ry="0.39421785"
     rx="0.39421785"
     height="5.1248331"
     width="5.1248331" /><rect
     ry="1.7082778"
     rx="2.7898803"
     y="84.897316"
     x="45.85955"
     height="3.4165556"
     width="50.217846"
     id="rect4139-7-9"
     style="fill:#deddda;fill-opacity:1;fill-rule:nonzero;stroke:none;stroke-width:1.97468" /><rect
     width="5.1248331"
     height="5.1248331"
     rx="0.39421785"
     ry="0.39421785"
     x="29.630899"
     y="84.043175"
     id="rect4143-6-4"
     style="color:#000000;display:inline;overflow:visible;visibility:visible;fill:#deddda;fill-opacity:1;fill-rule:nonzero;stroke:none;stroke-width:1.70828;stroke-linecap:round;stroke-linejoin:round;stroke-miterlimit:4;stroke-dasharray:none;stroke-dashoffset:0;stroke-opacity:1;marker:none;enable-background:accumulate" /><path
     d="m 51.997666,57.320288 11.3125,11.312501 49.092054,-49.09205 -11.3125,-11.3124995 z m 0,0"
     fill="#ff881e"
     id="path67"
     style="fill:#424242;fill-opacity:1;stroke-width:0.907593" /><path
     d="m 60.440211,65.846493 4.242187,4.242188 49.092052,-49.092049 -4.24219,-4.242188 z m 0,0"
     fill="#e66100"
     id="path69"
     style="fill:#262626;fill-opacity:1;stroke-width:0.907593" /><path
     d="M 54.783961,60.190243 50.541773,55.948056 99.633821,6.8560055 103.87601,11.098194 Z m 0,0"
     fill="#ffb367"
     id="path71"
     style="fill:#666666;fill-opacity:1;stroke-width:0.907593" /><path
     d="m 96.380755,10.109074 14.140625,14.140625 4.65919,-4.659191 -14.14063,-14.1406259 z m 0,0"
     fill="url(#f)"
     id="path73"
     style="fill:url(#f);stroke-width:0.907593" /><path
     d="m 115.18057,19.590508 c 3.21768,-3.217674 2.65959,-8.991614 -1.24632,-12.8943025 -3.90268,-3.9059054 -9.67663,-4.4639972 -12.89431,-1.2463234 -3.218011,3.2141125 -2.659921,8.9880529 1.24633,12.8943019 3.90625,3.90625 9.68019,4.464342 12.8943,1.246324 z m 0,0"
     fill="url(#g)"
     id="path75"
     style="fill:url(#g);stroke-width:0.907593" /><path
     d="M 49.416671,71.213783 64.724228,70.046851 50.583604,55.906227 Z m 0,0"
     fill="url(#h)"
     id="path77"
     style="fill:url(#h);stroke-width:0.907593" /><path
     d="m 49.416671,71.213783 6.648365,-0.507741 -6.140624,-6.140624 z m 0,0"
     fill="#3d3846"
     id="path79"
     style="stroke-width:0.907593" /><path
     d="M 94.051159,12.43867 108.19178,26.579295 112.85097,21.920103 98.710351,7.7794783 Z m 0,0"
     fill="url(#i)"
     id="path81"
     style="fill:url(#i);stroke-width:0.907593" /></svg>

<svg xmlns="http://www.w3.org/2000/svg" xmlns:xlink="http://www.w3.org/1999/xlink" xml:space="preserve" width="128" height="128" viewBox="0 0 128 128"><linearGradient id="b" x1="28" x2="116" y1="-276" y2="-276" gradientTransform="rotate(180 68 -94.564)" gradientUnits="userSpaceOnUse"><stop offset="0" stop-color="#c0bfbc"/><stop offset=".045" stop-color="#fff"/><stop offset=".091" stop-color="#deddda"/><stop offset=".909" stop-color="#deddda"/><stop offset=".955" stop-color="#fff"/><stop offset="1" stop-color="#c0bfbc"/></linearGradient><linearGradient id="a" gradientUnits="userSpaceOnUse"><stop offset="0" stop-color="#fc9a91"/><stop offset="1" stop-color="#cb2b31"/></linearGradient><linearGradient xlink:href="#a" id="c" x1="-253.63" x2="-230.06" y1="-56.518" y2="-56.518" gradientTransform="matrix(.6 .6 .58246 -.58246 287.302 123.542)"/><linearGradient xlink:href="#a" id="d" x1="-253.63" x2="-230.06" y1="-56.518" y2="-56.518" gradientTransform="matrix(.6 .6 .58246 -.58246 286.137 124.707)"/><linearGradient id="h" x1="181.677" x2="143.246" y1="-139.479" y2="-101.048" gradientTransform="matrix(.34444 -.08423 .08423 -.34444 9.344 39.47)" gradientUnits="userSpaceOnUse"><stop offset="0" stop-color="#d0bb8e"/><stop offset="1" stop-color="#fff"/></linearGradient><linearGradient id="i" x1="-230.06" x2="-253.63" y1="-64.518" y2="-64.518" gradientTransform="matrix(.6 .6 .58246 -.58246 286.137 124.707)" gradientUnits="userSpaceOnUse"><stop offset="0" stop-color="#c0bfbc"/><stop offset=".223" stop-color="#9a9996"/><stop offset=".744" stop-color="#d6d5d2"/><stop offset="1" stop-color="#f6f5f4"/></linearGradient><path d="M28 74.624a8 8 0 0 0-8 8v14.25a8 8 0 0 0 8 8h2.771l15.131 15.132 15.133-15.132H100a8 8 0 0 0 8-8v-14.25a8 8 0 0 0-8-8z" style="fill:#1a5fb4;fill-opacity:1"/><path d="M28 62.874a8 8 0 0 0-8 8v24a8 8 0 0 0 8 8h2.771l15.131 15.132 15.133-15.132H100a8 8 0 0 0 8-8v-24a8 8 0 0 0-8-8z" style="fill:url(#b)"/><path d="M29.125 12.524A9.126 9.126 0 0 0 20 21.649v68.1a9.126 9.126 0 0 0 9.125 9.125h1.646l15.131 15.132 15.133-15.132h37.84A9.126 9.126 0 0 0 108 89.749v-68.1a9.126 9.126 0 0 0-9.125-9.125z" style="fill:#f6f5f4;fill-opacity:1"/><rect width="8.542" height="8.542" x="27.923" y="64.689" rx=".657" ry=".657" style="color:#000;display:inline;overflow:visible;visibility:visible;fill:#3584e4;fill-opacity:1;fill-rule:nonzero;stroke:none;stroke-width:1.70828;stroke-linecap:round;stroke-linejoin:round;stroke-miterlimit:4;stroke-dasharray:none;stroke-dashoffset:0;stroke-opacity:1;marker:none"/><rect width="50.218" height="3.417" x="45.86" y="67.252" rx="2.79" ry="1.708" style="fill:#3584e4;fill-opacity:1;fill-rule:nonzero;stroke:none;stroke-width:1.97468"/><rect width="50.218" height="3.417" x="45.86" y="50.461" rx="2.79" ry="1.708" style="fill:#deddda;fill-opacity:1;fill-rule:nonzero;stroke:none;stroke-width:1.97468"/><rect width="5.125" height="5.125" x="29.631" y="49.607" rx=".394" ry=".394" style="color:#000;display:inline;overflow:visible;visibility:visible;fill:#deddda;fill-opacity:1;fill-rule:nonzero;stroke:none;stroke-width:1.70828;stroke-linecap:round;stroke-linejoin:round;stroke-miterlimit:4;stroke-dasharray:none;stroke-dashoffset:0;stroke-opacity:1;marker:none"/><rect width="50.218" height="3.417" x="45.86" y="36.795" rx="2.79" ry="1.708" style="fill:#deddda;fill-opacity:1;fill-rule:nonzero;stroke:none;stroke-width:1.97468"/><rect width="5.125" height="5.125" x="29.631" y="35.941" rx=".394" ry=".394" style="color:#000;display:inline;overflow:visible;visibility:visible;fill:#deddda;fill-opacity:1;fill-rule:nonzero;stroke:none;stroke-width:1.70828;stroke-linecap:round;stroke-linejoin:round;stroke-miterlimit:4;stroke-dasharray:none;stroke-dashoffset:0;stroke-opacity:1;marker:none"/><rect width="50.218" height="3.417" x="45.86" y="23.077" rx="2.79" ry="1.708" style="fill:#deddda;fill-opacity:1;fill-rule:nonzero;stroke:none;stroke-width:1.97468"/><rect width="5.125" height="5.125" x="29.631" y="22.223" rx=".394" ry=".394" style="color:#000;display:inline;overflow:visible;visibility:visible;fill:#deddda;fill-opacity:1;fill-rule:nonzero;stroke:none;stroke-width:1.70828;stroke-linecap:round;stroke-linejoin:round;stroke-miterlimit:4;stroke-dasharray:none;stroke-dashoffset:0;stroke-opacity:1;marker:none"/><rect width="50.218" height="3.417" x="45.86" y="84.897" rx="2.79" ry="1.708" style="fill:#deddda;fill-opacity:1;fill-rule:nonzero;stroke:none;stroke-width:1.97468"/><rect width="5.125" height="5.125" x="29.631" y="84.043" rx=".394" ry=".394" style="color:#000;display:inline;overflow:visible;visibility:visible;fill:#deddda;fill-opacity:1;fill-rule:nonzero;stroke:none;stroke-width:1.70828;stroke-linecap:round;stroke-linejoin:round;stroke-miterlimit:4;stroke-dasharray:none;stroke-dashoffset:0;stroke-opacity:1;marker:none"/><path fill="#ff881e" d="M51.998 57.32 63.31 68.633l49.092-49.092L101.09 8.228zm0 0" style="fill:#424242;fill-opacity:1;stroke-width:.907593"/><path fill="#e66100" d="m60.44 65.846 4.242 4.243 49.092-49.092-4.242-4.243zm0 0" style="fill:#262626;fill-opacity:1;stroke-width:.907593"/><path fill="#ffb367" d="m54.784 60.19-4.242-4.242L99.634 6.856l4.242 4.242Zm0 0" style="fill:#666;fill-opacity:1;stroke-width:.907593"/><path fill="url(#c)" d="m96.38 10.11 14.141 14.14 4.66-4.66L101.04 5.45zm0 0" style="fill:url(#c);stroke-width:.907593"/><path fill="url(#d)" d="M115.18 19.59c3.218-3.217 2.66-8.991-1.246-12.894-3.902-3.906-9.676-4.464-12.894-1.246-3.218 3.214-2.66 8.988 1.246 12.894s9.68 4.465 12.895 1.247m0 0" style="fill:url(#d);stroke-width:.907593"/><path fill="url(#h)" d="m49.417 71.214 15.307-1.167-14.14-14.14Zm0 0" style="fill:url(#h);stroke-width:.907593"/><path fill="#3d3846" d="m49.417 71.214 6.648-.508-6.14-6.14zm0 0" style="stroke-width:.907593"/><path fill="url(#i)" d="m94.051 12.439 14.14 14.14 4.66-4.659-14.14-14.14Zm0 0" style="fill:url(#i);stroke-width:.907593"/></svg>
